svg/Octicons/checklist.svg

<svg xmlns="http://www.w3.org/2000/svg" viewBox="0 0 765.6 1024"><path d="m760.69 516.22l-49.812-49.656c-6.438-6.529-16.938-6.594-23.375 0l-105 104.94-120.12 120.37-93.03-93.12c-6.531-6.562-17.03-6.562-23.5 0l-49.719 49.688c-6.531 6.562-6.531 17.06 0 23.562l104.78 104.87 17.969 17.875 31.688 31.812c6.562 6.562 17.188 6.562 23.562 0l49.625-49.688 236.87-237.09c6.625-6.468 6.625-16.968.063-23.561m-532.22 64.59l49.687-49.812c42.469-42.37 116.34-42.44 158.78.062l25.312 25.312 113.75-108.37v-320h-576v704h320l-91.53-92.12c-43.781-43.937-43.781-115.25 0-159.06m-36.469-388.81h320v64h-320v-64m0 128h320v64h-320v-64m-64 192h-64v-64h64v64m0-128h-64v-64h64v64m0-128h-64v-64h64v64m64 192h64v64h-64v-64"/></svg>

<svg height="1024" width="765.602" xmlns="http://www.w3.org/2000/svg">
  <path d="M760.688 516.219l-49.812-49.656c-6.438-6.529-16.938-6.594-23.375 0L582.5 571.5 462.375 691.875l-93.031-93.125c-6.531-6.562-17.031-6.562-23.5 0l-49.719 49.688c-6.531 6.562-6.531 17.062 0 23.562l104.781 104.875 17.969 17.875 31.688 31.812c6.562 6.562 17.188 6.562 23.562 0l49.625-49.688L760.625 539.78C767.25 533.312 767.25 522.812 760.688 516.219zM228.469 580.812L278.156 531c42.469-42.375 116.344-42.438 158.781 0.062l25.312 25.312L576 448V128H0v704h320l-91.531-92.125C184.688 695.938 184.688 624.625 228.469 580.812zM192 192h320v64H192V192zM192 320h320v64H192V320zM128 512H64v-64h64V512zM128 384H64v-64h64V384zM128 256H64v-64h64V256zM192 448h64v64h-64V448z" />
</svg>
